photo/instagram.svg

<?xml version="1.0" encoding="UTF-8"?><svg xmlns="http://www.w3.org/2000/svg" xmlns:xlink="http://www.w3.org/1999/xlink" contentScriptType="text/ecmascript" width="30pt" zoomAndPan="magnify" contentStyleType="text/css" viewBox="0 0 30 30.000001" height="30.000001pt" preserveAspectRatio="xMidYMid meet" version="1.2"><defs/><g xml:id="surface1" id="surface1"><g clip-rule="nonzero"><path style=" stroke:none;fill-rule:nonzero;fill:rgb(85.099792%,85.099792%,85.099792%);fill-opacity:1;" d="M 9.0625 0 C 4.332031 0 0.484375 3.847656 0.484375 8.578125 L 0.484375 20.453125 C 0.484375 25.183594 4.332031 29.03125 9.0625 29.03125 L 20.9375 29.03125 C 25.667969 29.03125 29.515625 25.183594 29.515625 20.453125 L 29.515625 8.578125 C 29.515625 3.847656 25.667969 0 20.9375 0 Z M 9.0625 1.320312 L 20.9375 1.320312 C 24.953125 1.320312 28.195312 4.5625 28.195312 8.578125 L 28.195312 20.453125 C 28.195312 24.46875 24.953125 27.710938 20.9375 27.710938 L 9.0625 27.710938 C 5.046875 27.710938 1.804688 24.46875 1.804688 20.453125 L 1.804688 8.578125 C 1.804688 4.5625 5.046875 1.320312 9.0625 1.320312 Z M 22.917969 5.277344 C 22.742188 5.277344 22.574219 5.3125 22.414062 5.378906 C 22.25 5.445312 22.109375 5.542969 21.984375 5.664062 C 21.859375 5.789062 21.765625 5.929688 21.699219 6.09375 C 21.632812 6.253906 21.597656 6.421875 21.597656 6.597656 C 21.597656 6.773438 21.632812 6.941406 21.699219 7.101562 C 21.765625 7.265625 21.859375 7.40625 21.984375 7.53125 C 22.109375 7.65625 22.25 7.75 22.414062 7.816406 C 22.574219 7.882812 22.742188 7.917969 22.917969 7.917969 C 23.09375 7.917969 23.261719 7.882812 23.421875 7.816406 C 23.585938 7.75 23.726562 7.65625 23.851562 7.53125 C 23.976562 7.40625 24.070312 7.265625 24.136719 7.101562 C 24.203125 6.941406 24.238281 6.773438 24.238281 6.597656 C 24.238281 6.421875 24.203125 6.253906 24.136719 6.09375 C 24.070312 5.929688 23.976562 5.789062 23.851562 5.664062 C 23.726562 5.542969 23.585938 5.445312 23.421875 5.378906 C 23.261719 5.3125 23.09375 5.277344 22.917969 5.277344 Z M 15 7.257812 C 11 7.257812 7.742188 10.515625 7.742188 14.515625 C 7.742188 18.515625 11 21.773438 15 21.773438 C 19 21.773438 22.257812 18.515625 22.257812 14.515625 C 22.257812 10.515625 19 7.257812 15 7.257812 Z M 15 8.578125 C 18.289062 8.578125 20.9375 11.230469 20.9375 14.515625 C 20.9375 17.804688 18.289062 20.453125 15 20.453125 C 11.710938 20.453125 9.0625 17.804688 9.0625 14.515625 C 9.0625 11.230469 11.710938 8.578125 15 8.578125 Z M 15 8.578125 "/></g></g></svg>

<svg xmlns="http://www.w3.org/2000/svg" contentScriptType="text/ecmascript" version="1.2" viewBox="0 0 30 30"><path d="M9.063 0C4.332 0 .483 3.848.483 8.578v11.875c0 4.73 3.848 8.578 8.579 8.578h11.874c4.731 0 8.579-3.847 8.579-8.578V8.578c0-4.73-3.848-8.578-8.578-8.578Zm0 1.32h11.874a7.249 7.249 0 0 1 7.258 7.258v11.875a7.249 7.249 0 0 1-7.258 7.258H9.063a7.249 7.249 0 0 1-7.257-7.258V8.578A7.249 7.249 0 0 1 9.062 1.32Zm13.855 3.957a1.332 1.332 0 0 0-.934.387 1.272 1.272 0 0 0-.285.43 1.305 1.305 0 0 0 0 1.008 1.292 1.292 0 0 0 .715.714 1.305 1.305 0 0 0 1.008 0c.164-.066.305-.16.43-.285.125-.125.218-.265.285-.43a1.305 1.305 0 0 0 0-1.007 1.272 1.272 0 0 0-.285-.43 1.332 1.332 0 0 0-.934-.387ZM15 7.257c-4 0-7.258 3.259-7.258 7.259S11 21.773 15 21.773s7.258-3.257 7.258-7.257c0-4-3.258-7.258-7.258-7.258Zm0 1.321a5.927 5.927 0 0 1 5.938 5.938A5.925 5.925 0 0 1 15 20.453a5.925 5.925 0 0 1-5.938-5.937A5.927 5.927 0 0 1 15 8.578Zm0 0" style="stroke:none;fill-rule:nonzero;fill:#d9d9d9;fill-opacity:1"/></svg>
